docs/img/appwrite-logotype-dark.svg

<svg fill="none" height="55" viewBox="0 0 300 55" width="300" xmlns="http://www.w3.org/2000/svg"><g fill="#19191d"><path d="m87.6281 44.3074c4.9066 0 7.3869-2.5301 8.4653-4.2527h.4853c.2157 1.8303 1.5098 3.5529 4.0443 3.5529h4.799v-5.3832h-1.241c-.862 0-1.294-.4845-1.294-1.2381v-21.5865h-6.3622v3.4452h-.4853c-1.2401-1.7226-3.8283-4.145-8.5732-4.145-7.5488 0-13.1564 6.2445-13.1564 14.8037s5.7155 14.8037 13.3182 14.8037zm1.1323-6.1368c-4.4754 0-7.9801-3.2837-7.9801-8.6131 0-5.2216 3.3969-8.7745 7.9261-8.7745 4.3136 0 7.9262 3.176 7.9262 8.7745 0 4.791-3.0734 8.6131-7.8722 8.6131z"/><path d="m109.178 54.5455h6.362v-14.4908h.486c1.186 1.7226 3.72 4.2527 8.735 4.2527 7.549 0 13.048-6.3521 13.048-14.8037 0-8.5054-5.877-14.8037-13.48-14.8037-4.852 0-7.225 2.6377-8.357 4.0912h-.485v-3.3914h-6.309zm14.235-16.2134c-4.368 0-7.98-3.2299-7.98-8.8284 0-4.791 3.073-8.8284 7.872-8.8284 4.475 0 7.98 3.4991 7.98 8.8284 0 5.2217-3.397 8.8284-7.872 8.8284z"/><path d="m141.092 54.5455h6.363v-14.4908h.485c1.186 1.7226 3.721 4.2527 8.735 4.2527 7.549 0 12.525-6.3521 12.525-14.8037 0-8.5054-5.354-14.8037-12.956-14.8037-4.853 0-7.225 2.6377-8.358 4.0912h-.485v-3.3914h-6.309zm14.235-16.2134c-4.367 0-7.98-3.2299-7.98-8.8284 0-4.791 3.074-8.8284 7.872-8.8284 4.476 0 7.98 3.4991 7.98 8.8284 0 5.2217-3.396 8.8284-7.872 8.8284z"/><path d="m177.61 44.2626h9.005l5.122-22.1248h.324l5.122 22.1248h8.951l7.167-28.2078h-6.413l-5.122 22.1786h-.485l-5.123-22.1786h-8.465l-5.176 22.1786h-.485l-5.069-22.1786h-6.794z"/><path d="m216.524 44.2626h6.363v-13.9424c0-5.3293 2.48-8.6131 7.117-8.6131h2.804v-6.3521h-2.103c-3.612 0-6.362 2.4763-7.441 4.8449h-.431v-4.1451h-6.309z"/><path d="m264.382 44.2626h4.961v-5.6523h-4.907c-1.941 0-2.75-.8613-2.75-2.8531v-14.1039h7.98v-5.5985h-7.98v-7.91323h-6.039v7.91323h-5.284v5.5985h4.907v14.1577c0 5.9753 3.612 8.4516 9.112 8.4516z"/><path d="m286.412 44.3074c5.877 0 11.054-2.9069 12.887-8.7746l-5.823-1.3996c-1.025 3.1222-3.99 4.7372-7.118 4.7372-4.637 0-7.71-3.0146-7.764-7.7518h21.406v-1.7764c0-8.3977-5.23-14.6422-13.857-14.6422-7.603 0-14.127 5.9753-14.127 14.8575 0 8.6131 5.769 14.7499 14.396 14.7499zm-7.764-17.8183c.377-3.3914 3.451-6.2445 7.495-6.2445 3.882 0 7.063 2.4225 7.387 6.2445z"/><path clip-rule="evenodd" d="m247.534 44.2626h-6.363v-22.6093h-4.96v-5.5985h11.323z" fill-rule="evenodd"/><path d="m243.88 12.1403c2.318 0 4.044-1.7226 4.044-3.98356 0-2.20709-1.726-3.9297-4.044-3.9297-2.319 0-4.044 1.72261-4.044 3.9297 0 2.26096 1.725 3.98356 4.044 3.98356z"/></g><path d="m55.552 37.3459v12.4486h-31.1158c-9.0653 0-16.98066-5.0066-21.21552-12.4486-.61564-1.0819-1.15446-2.217-1.60644-3.3951-.887277-2.3087-1.445024-4.7859-1.61424-7.3707v-3.3657c.0367378-.576.0946276-1.1475.17033-1.7122.154744-1.1589.388529-2.2928.695791-3.3951 2.906739-10.45007 12.358379-18.1071 23.570079-18.1071s20.6622 7.65703 23.5689 18.1071h-13.3046c-2.1842-3.4064-5.9649-5.6585-10.2643-5.6585s-8.0801 2.2521-10.2643 5.6585c-.6658 1.0355-1.1823 2.1774-1.5207 3.3951-.3006 1.0796-.4609 2.2181-.4609 3.395 0 3.5683 1.4762 6.7846 3.843 9.0536 2.1931 2.1061 5.1499 3.3951 8.4029 3.3951z" fill="#fd366e"/><path d="m55.552 21.5022v12.4486h-22.7128c2.3668-2.269 3.843-5.4853 3.843-9.0535 0-1.177-.1603-2.3155-.4609-3.3951z" fill="#fd366e"/></svg>

<svg width="300" height="55" viewBox="0 0 300 55" fill="none" xmlns="http://www.w3.org/2000/svg">
<path d="M87.6281 44.3074C92.5347 44.3074 95.015 41.7773 96.0934 40.0547H96.5787C96.7944 41.885 98.0885 43.6076 100.623 43.6076H105.422V38.2244H104.181C103.319 38.2244 102.887 37.7399 102.887 36.9863V15.3998H96.5248V18.845H96.0395C94.7994 17.1224 92.2112 14.7 87.4663 14.7C79.9175 14.7 74.3099 20.9445 74.3099 29.5037C74.3099 38.0629 80.0254 44.3074 87.6281 44.3074ZM88.7604 38.1706C84.285 38.1706 80.7803 34.8869 80.7803 29.5575C80.7803 24.3359 84.1772 20.783 88.7064 20.783C93.02 20.783 96.6326 23.959 96.6326 29.5575C96.6326 34.3485 93.5592 38.1706 88.7604 38.1706Z" fill="#19191D"/>
<path d="M109.178 54.5455H115.54V40.0547H116.026C117.212 41.7773 119.746 44.3074 124.761 44.3074C132.31 44.3074 137.809 37.9553 137.809 29.5037C137.809 20.9983 131.932 14.7 124.329 14.7C119.477 14.7 117.104 17.3377 115.972 18.7912H115.487V15.3998H109.178V54.5455ZM123.413 38.3321C119.045 38.3321 115.433 35.1022 115.433 29.5037C115.433 24.7127 118.506 20.6753 123.305 20.6753C127.78 20.6753 131.285 24.1744 131.285 29.5037C131.285 34.7254 127.888 38.3321 123.413 38.3321Z" fill="#19191D"/>
<path d="M141.092 54.5455H147.455V40.0547H147.94C149.126 41.7773 151.661 44.3074 156.675 44.3074C164.224 44.3074 169.2 37.9553 169.2 29.5037C169.2 20.9983 163.846 14.7 156.244 14.7C151.391 14.7 149.019 17.3377 147.886 18.7912H147.401V15.3998H141.092V54.5455ZM155.327 38.3321C150.96 38.3321 147.347 35.1022 147.347 29.5037C147.347 24.7127 150.421 20.6753 155.219 20.6753C159.695 20.6753 163.199 24.1744 163.199 29.5037C163.199 34.7254 159.803 38.3321 155.327 38.3321Z" fill="#19191D"/>
<path d="M177.61 44.2626H186.615L191.737 22.1378H192.061L197.183 44.2626H206.134L213.301 16.0548H206.888L201.766 38.2334H201.281L196.158 16.0548H187.693L182.517 38.2334H182.032L176.963 16.0548H170.169L177.61 44.2626Z" fill="#19191D"/>
<path d="M216.524 44.2626H222.887V30.3202C222.887 24.9909 225.367 21.7071 230.004 21.7071H232.808V15.355H230.705C227.093 15.355 224.343 17.8313 223.264 20.1999H222.833V16.0548H216.524V44.2626Z" fill="#19191D"/>
<path d="M264.382 44.2626H269.343V38.6103H264.436C262.495 38.6103 261.686 37.749 261.686 35.7572V21.6533H269.666V16.0548H261.686V8.14157H255.647V16.0548H250.363V21.6533H255.27V35.811C255.27 41.7863 258.882 44.2626 264.382 44.2626Z" fill="#19191D"/>
<path d="M286.412 44.3074C292.289 44.3074 297.466 41.4005 299.299 35.5328L293.476 34.1332C292.451 37.2554 289.486 38.8704 286.358 38.8704C281.721 38.8704 278.648 35.8558 278.594 31.1186H300V29.3422C300 20.9445 294.77 14.7 286.143 14.7C278.54 14.7 272.016 20.6753 272.016 29.5575C272.016 38.1706 277.785 44.3074 286.412 44.3074ZM278.648 26.4891C279.025 23.0977 282.099 20.2446 286.143 20.2446C290.025 20.2446 293.206 22.6671 293.53 26.4891H278.648Z" fill="#19191D"/>
<path fill-rule="evenodd" clip-rule="evenodd" d="M247.534 44.2626H241.171V21.6533H236.211V16.0548H247.534V44.2626Z" fill="#19191D"/>
<path d="M243.88 12.1403C246.198 12.1403 247.924 10.4177 247.924 8.15674C247.924 5.94965 246.198 4.22704 243.88 4.22704C241.561 4.22704 239.836 5.94965 239.836 8.15674C239.836 10.4177 241.561 12.1403 243.88 12.1403Z" fill="#19191D"/>
<path d="M55.552 37.3459V49.7945H24.4362C15.3709 49.7945 7.45554 44.7879 3.22068 37.3459C2.60504 36.264 2.06622 35.1289 1.61424 33.9508C0.726963 31.6421 0.169216 29.1649 0 26.5801V23.2144C0.0367378 22.6384 0.0946276 22.0669 0.17033 21.5022C0.325074 20.3433 0.558859 19.2094 0.866121 18.1071C3.77286 7.65703 13.2245 0 24.4362 0C35.6479 0 45.0984 7.65703 48.0051 18.1071H34.7005C32.5163 14.7007 28.7356 12.4486 24.4362 12.4486C20.1368 12.4486 16.3561 14.7007 14.1719 18.1071C13.5061 19.1426 12.9896 20.2845 12.6512 21.5022C12.3506 22.5818 12.1903 23.7203 12.1903 24.8972C12.1903 28.4655 13.6665 31.6818 16.0333 33.9508C18.2264 36.0569 21.1832 37.3459 24.4362 37.3459H55.552Z" fill="#FD366E"/>
<path d="M55.552 21.5022V33.9508H32.8392C35.206 31.6818 36.6822 28.4655 36.6822 24.8973C36.6822 23.7203 36.5219 22.5818 36.2213 21.5022H55.552Z" fill="#FD366E"/>
</svg>
